X:1
T:Banks of Avon, The
T:Banks of Avon, The
T:Alexander Walker
C:Alexander Walker
L:1/8
M:2/4
K:D
V:1 treble 
V:1
 (d/B/) | A>F FE/D/ | E/D/E/F/ B,>DB,/ | A,>B,D>E | F>E E d/B/ | A>F F>ED/ | E/DE/ F/ B,3/2D/4B,/ | %7
 D/F/d/B/ A/F/E/D/ | FD D :| f/e/ | D>DF>A | D/E/F/G/ A>GF/ | G>BF>d | e<E E(f/e/) | d>DF>A | %15
 D/E/F/G/ AB/c/ | fb/a/ g/f/e/c/ | d3 f/g/ | a>f g/f/e/d/ | e/d/e/f/ B>d | A/F/A/B/ d>F | %21
 (E2 E3/2)B/4c/ | d/c/B/A/ B>d | A>B G>A | G/F/E/D/ B,/B/A/G/ | F>D D || %26

